X: 1611
T: Lord Hume's Reel
P: Lord Hume's Reel
C:Traditional?
R:Strathspey (8x40) ABABB
B:RSCDS 16-11
Z:Anselm Lingnau <anselm@strathspey.org>
M:4/4
L:1/8
K:G
B/c/|"G"d2 BB/c/ d>G B>G|"Am"E>c A>G "D"F<D DB/c/|\
     "G"d2 B>g d>G B>G|"D"D>A "D7"D>F "G"G2 G B/c/|
     "G"d2 BB/c/ d>G B>G|"Am"E>c A>G "D"F<D DB/c/|\
     "G"d2 B>g d>G B>G|"D"D>A "D7"D>F "G"G2 G||
B/c/|"G"d>g g>f "Am"e>a a>g|"D"f>d e>f "G"g>a g B/c/|\
     "G"d>g g>f "Am"e<a a>g|"D"f>d e>f "G"g2 g>a|
     "G"b>g "D"a<f "Em"g>e "Bm"f<d|"C"e>c "G"d<B "D"A>B c>e|\
     "G"d2 B>g d>G B>G|"Am"E>c "D7"B/A/G/F/ "G"G2 G|]
%%center Book16/1611-Lord_Humes_Reel-AL.abc

%%sep 1 1 500
%%sep 1 1 500

